Papirus/22x22/panel/franz-panel.svg

<?xml version="1.0" encoding="UTF-8" standalone="no"?>
<svg xmlns:dc="http://purl.org/dc/elements/1.1/" xmlns:cc="http://creativecommons.org/ns#" xmlns:rdf="http://www.w3.org/1999/02/22-rdf-syntax-ns#" xmlns:svg="http://www.w3.org/2000/svg" xmlns="http://www.w3.org/2000/svg" version="1.1" id="svg2" viewBox="0 0 22 22">
    <metadata id="metadata10">
        <rdf:RDF>
            <cc:Work rdf:about="">
                <dc:format>
                    image/svg+xml
                </dc:format>
                <dc:type rdf:resource="http://purl.org/dc/dcmitype/StillImage"/>
                <dc:title/>
            </cc:Work>
        </rdf:RDF>
    </metadata>
<!--Generator: Sketch 3.6 (26304) - http://www.bohemiancoding.com/sketch-->
    <path id="path4" d="m 8.5859375,8 c -0.5876397,0 -1.2662487,1.102674 -1.984375,2.269531 -0.1340863,0.217143 -0.2646379,0.428429 -0.390625,0.625 -0.4049584,0.706286 -0.9511698,1.812565 -1.4785156,2.107422 -0.4418547,0.243428 -0.9201204,0.402344 -1.3007813,0.402344 -0.2573736,0 -0.3595682,-0.0787 -0.3847656,-0.101563 C 2.871393,13.13702 2.6601836,13 2.5,13 2.2732233,13 2,13 2,13.5 2,15 5.066313,15.893255 6.4257812,15.984375 6.6156618,15.994665 6.8098328,16 7.0078125,16 l 0.048828,0 c 1.46325,-0.02514 2.7796741,-0.700869 3.5292975,-1.808297 0.153883,-0.226286 0.375366,-0.191406 0.414062,-0.191406 0.0387,0 0.260179,-0.03488 0.414062,0.191406 0.749624,1.107428 2.066042,1.783157 3.529297,1.808297 l 0.04883,0 c 0.197979,0 0.39215,-0.0053 0.582031,-0.01563 C 16.933687,15.893255 20,15 20,13.5 20,13 19.726777,13 19.5,13 c -0.160184,0 -0.371393,0.13702 -0.546875,0.302734 -0.0252,0.02286 -0.127393,0.101563 -0.384766,0.101563 -0.380661,0 -0.858926,-0.158916 -1.300781,-0.402344 -0.527346,-0.294857 -1.073557,-1.401136 -1.478516,-2.107422 -0.125987,-0.196571 -0.256539,-0.407857 -0.390624,-0.625 C 14.680312,9.102674 14.001701,8 13.414062,8 12.996505,8 12.51408,8.297938 12.048828,8.585938 11.660967,8.825938 11.260974,9 11,9 10.739026,9 10.339032,8.825938 9.9511719,8.585938 9.4859196,8.297938 9.0034946,8 8.5859375,8 Z" style="opacity:1000002;fill:#ffffff;fill-opacity:1;fill-rule:evenodd;stroke:none"/>
</svg>

<?xml version="1.0" encoding="UTF-8" standalone="no"?>
<svg id="svg2" xmlns:rdf="http://www.w3.org/1999/02/22-rdf-syntax-ns#" xmlns="http://www.w3.org/2000/svg" viewBox="0 0 22 22" version="1.1" xmlns:cc="http://creativecommons.org/ns#" xmlns:dc="http://purl.org/dc/elements/1.1/">
 <metadata id="metadata10">
  <rdf:RDF>
   <cc:Work rdf:about="">
    <dc:format>image/svg+xml</dc:format>
    <dc:type rdf:resource="http://purl.org/dc/dcmitype/StillImage"/>
    <dc:title/>
   </cc:Work>
  </rdf:RDF>
 </metadata>
<!--Generator: Sketch 3.6 (26304) - http://www.bohemiancoding.com/sketch-->
 <path id="path4" opacity="1e6" d="m8.5859 8c-0.58764 0-1.2662 1.1027-1.9844 2.2695-0.13409 0.21714-0.26464 0.42843-0.39062 0.625-0.40496 0.70629-0.95117 1.8126-1.4785 2.1074-0.44185 0.24343-0.92012 0.40234-1.3008 0.40234-0.25737 0-0.35957-0.0787-0.38477-0.10156-0.1754-0.166-0.3866-0.303-0.5468-0.303-0.2268 0-0.5 0-0.5 0.5 0 1.5 3.0663 2.393 4.4258 2.484 0.1899 0.011 0.384 0.016 0.582 0.016h0.048828c1.4632-0.02514 2.7797-0.70087 3.5293-1.8083 0.15388-0.22629 0.37537-0.19141 0.41406-0.19141 0.0387 0 0.26018-0.03488 0.41406 0.19141 0.74962 1.1074 2.066 1.7832 3.5293 1.8083h0.04883c0.19798 0 0.39215-0.0053 0.58203-0.01563 1.36-0.091 4.426-0.984 4.426-2.484 0-0.5-0.273-0.5-0.5-0.5-0.16018 0-0.37139 0.13702-0.54688 0.30273-0.0252 0.02286-0.12739 0.10156-0.38477 0.10156-0.38066 0-0.85893-0.15892-1.3008-0.40234-0.52735-0.29486-1.0736-1.4011-1.4785-2.1074-0.12599-0.19657-0.25654-0.40786-0.39062-0.625-0.718-1.1673-1.396-2.27-1.984-2.27-0.417 0-0.9 0.2979-1.365 0.5859-0.388 0.24-0.788 0.4141-1.049 0.4141s-0.661-0.1741-1.0488-0.4141c-0.4653-0.288-0.9477-0.5859-1.3653-0.5859z" fill-rule="evenodd" fill="#fff"/>
</svg>
